public/avatar/shoe/158.svg

<svg xmlns:xlink="http://www.w3.org/1999/xlink" height="38.3" width="36.05" xmlns="http://www.w3.org/2000/svg"><use height="20.75" transform="translate(8.1 9.25)" width="24.2" xlink:href="#a"/><defs><g id="a" fill-rule="evenodd"><path d="M-9.35-.15q-.3-.95-.05-2.6.25-1.85 1-2.25Q-5.85-6.15.8-5q2.9.55 4.9 3.4 1.05 1.5 2 3.65.65 1.05.8 3 .1 2.1-.6 3.15Q5 12.25-2.3 14.25q-7.1 1.85-10.4 0-4.55-2.6-2.15-7.75 1.8-4 5.5-6.65" transform="translate(15.7 5.6)"/><path d="m-8.4-.4-.05-1q0-2.3.55-2.65 3.2-1.2 8.05-.2 3.05.55 6.6 6.75l.1.1q.5.85.55 2.55.1 1.7-.35 2.45-2.7 3.75-9.65 5.65-6.7 1.7-9.55.1-2.4-1.4-2.45-3.4V9.7q0-4.8 5.85-9l.55-.45-.2-.65" fill="#474749" transform="translate(15.7 5.6)"/><path d="m5 6.7 2-.9-.55 2.4Q5 10.9-1.4 13q-2.7.9-6.75.85l-3.45-.25q-1.1-1.4-1.05-2.1l6.05.15q4.9-.35 6.55-1.5Q2.4 8.55-2.7 7.4L2.25.95l1.45 1.4Q5.1 4.3 5 6.7" fill="#212321" transform="translate(15.7 5.6)"/><path d="m-8.4-.4-.05-1q.15-2.35.55-2.65.5-.1.9-.3l-.05 4.7-4.5 4.25q-2.15 2.7-2.15 5.35.35 1.3-.7 1.1l-.2-1.1V9.7q0-4.8 5.85-9l.55-.45-.2-.65" fill="#aeb1ae" transform="translate(15.7 5.6)"/><path d="M7.4 5Q5 9.5-3.4 11.85l-8.75.35-2.45-1.35-.2-1.45 2.35 1.65q3.45 1.35 9.1-.4 9.05-2.8 10.5-7.3L7.4 5" transform="translate(15.7 5.6)"/><path d="M-.45-.1q.35-2.05-3.8-2.45l-4.2.05-.25-.9 4.95-.3Q1.05-3.35.6-.15q-.4 3.5-4.6 6-3.7 2.3-6 1.7-1.55-.45-2-2.1l-.1-1.6.85-.8-.05 1.65q.2 1.75 1.8 2 2.5.4 5.7-2.15 3-2.4 3.35-4.65" transform="translate(15.7 5.6)"/><path d="M-.35-2.25q-.75-.95-4.35-1.1l-3.45.1.15-1 4.95-.4q5.05.25 5.6 3.2.25 1.2-.3 2.8Q.8 6.2-3.95 8.15q-3.1 1.25-5.65.95-.5.6-.8 2.4l-2.55-.65.75-2.35q-.9-.75-1-2.15-.05-.85.55-1.65l.6-.6.25 1.45q.5 1.55 1.5 2Q-7 8.85-2 4.4 2.05.8-.35-2.25" fill="#fdf200" transform="translate(15.7 5.6)"/><path d="M3.1-3.2q1.65 1.05 1.65 1.9Q2.2 2.55 2.55-.1 2.8-1.7 1.4-3.15L-.05-4.3q1.4.05 3.15 1.1" transform="translate(15.7 5.6)"/><path d="M-11.25 3.55q4.35-.7 6.45 1.4.45.4 0 .85-.4.4-.8 0-1.75-1.65-5.5-1.05-.6.15-.7-.45-.1-.6.55-.75" fill="#fda900" transform="translate(15.7 5.6)"/><path d="M-10 1.35q4.3-.5 7.6 1.45.5.3.2.85-.25.45-.8.15-2.9-1.65-6.9-1.25-.5 0-.65-.55 0-.55.55-.65" fill="#fda900" transform="translate(15.7 5.6)"/><path d="M-8.8-.05q-.1-.5.55-.65Q-3.7-1.15-.95.55q.5.45.2.85-.3.55-.9.2Q-4.05.1-8.15.5q-.65.15-.65-.55" fill="#fda900" transform="translate(15.7 5.6)"/><path d="m-12.45 4.4.35-.3.1 1.05-1.05 2-.2-.8.25-1.2.55-.75M-8-4.25l.95-.15v1.05l-1.25.15.3-1.05" fill="#fdffff" transform="translate(15.7 5.6)"/><path d="m-12.95 11.9 2.3.6q.05.75.6 1.55-1.35-.2-2.4-.75l-.5-1.4m14-12.45q.1-.9 1.35-1.15l-.1 3.05Q-.1 8.55-8.4 9.1q2.5-.9 6.2-3.2Q.55 4.15 1.05 2.15v-2.7" fill="#fda900" transform="translate(15.7 5.6)"/></g></defs></svg>

<?xml version="1.0" encoding="UTF-8" standalone="no"?>
<svg xmlns:xlink="http://www.w3.org/1999/xlink" height="38.3px" width="36.05px" xmlns="http://www.w3.org/2000/svg">
  <g transform="matrix(1.0, 0.0, 0.0, 1.0, 23.8, 14.85)">
    <use height="20.75" transform="matrix(1.0, 0.0, 0.0, 1.0, -15.7, -5.6)" width="24.2" xlink:href="#shape0"/>
  </g>
  <defs>
    <g id="shape0" transform="matrix(1.0, 0.0, 0.0, 1.0, 15.7, 5.6)">
      <path d="M-9.35 -0.15 Q-9.65 -1.1 -9.4 -2.75 -9.15 -4.6 -8.4 -5.0 -5.85 -6.15 0.8 -5.0 3.7 -4.45 5.7 -1.6 6.75 -0.1 7.7 2.05 8.35 3.1 8.5 5.05 8.6 7.15 7.9 8.2 5.0 12.25 -2.3 14.25 -9.4 16.1 -12.7 14.25 -17.25 11.65 -14.85 6.5 -13.05 2.5 -9.35 -0.15" fill="#000000" fill-rule="evenodd" stroke="none"/>
      <path d="M-8.4 -0.4 L-8.45 -1.4 Q-8.45 -3.7 -7.9 -4.05 -4.7 -5.25 0.15 -4.25 3.2 -3.7 6.75 2.5 L6.85 2.6 Q7.35 3.45 7.4 5.15 7.5 6.85 7.05 7.6 4.35 11.35 -2.6 13.25 -9.3 14.95 -12.15 13.35 -14.55 11.95 -14.6 9.95 L-14.6 9.7 Q-14.6 4.9 -8.75 0.7 L-8.2 0.25 -8.4 -0.4" fill="#474749" fill-rule="evenodd" stroke="none"/>
      <path d="M5.0 6.7 L7.0 5.8 6.45 8.2 Q5.0 10.9 -1.4 13.0 -4.1 13.9 -8.15 13.85 L-11.6 13.6 Q-12.7 12.2 -12.65 11.5 L-6.6 11.65 Q-1.7 11.3 -0.05 10.15 2.4 8.55 -2.7 7.4 L2.25 0.95 3.7 2.35 Q5.1 4.3 5.0 6.7" fill="#212321" fill-rule="evenodd" stroke="none"/>
      <path d="M-8.4 -0.4 L-8.45 -1.4 Q-8.3 -3.75 -7.9 -4.05 -7.4 -4.15 -7.0 -4.35 L-7.05 0.35 -11.55 4.6 Q-13.7 7.3 -13.7 9.95 -13.35 11.25 -14.4 11.05 L-14.6 9.95 -14.6 9.7 Q-14.6 4.9 -8.75 0.7 L-8.2 0.25 -8.4 -0.4" fill="#aeb1ae" fill-rule="evenodd" stroke="none"/>
      <path d="M7.4 5.0 Q5.0 9.5 -3.4 11.85 L-12.15 12.2 -14.6 10.85 -14.8 9.4 -12.45 11.05 Q-9.0 12.4 -3.35 10.65 5.7 7.85 7.15 3.35 L7.4 5.0" fill="#000000" fill-rule="evenodd" stroke="none"/>
      <path d="M-0.45 -0.1 Q-0.1 -2.15 -4.25 -2.55 L-8.45 -2.5 -8.7 -3.4 -3.75 -3.7 Q1.05 -3.35 0.6 -0.15 0.2 3.35 -4.0 5.85 -7.7 8.15 -10.0 7.55 -11.55 7.1 -12.0 5.45 L-12.1 3.85 -11.25 3.05 -11.3 4.7 Q-11.1 6.45 -9.5 6.7 -7.0 7.1 -3.8 4.55 -0.8 2.15 -0.45 -0.1" fill="#000000" fill-rule="evenodd" stroke="none"/>
      <path d="M-0.35 -2.25 Q-1.1 -3.2 -4.7 -3.35 L-8.15 -3.25 -8.0 -4.25 -3.05 -4.65 Q2.0 -4.4 2.55 -1.45 2.8 -0.25 2.25 1.35 0.8 6.2 -3.95 8.15 -7.05 9.4 -9.6 9.1 -10.1 9.7 -10.4 11.5 L-12.95 10.85 -12.2 8.5 Q-13.1 7.75 -13.2 6.35 -13.25 5.5 -12.65 4.7 L-12.05 4.1 -11.8 5.55 Q-11.3 7.1 -10.3 7.55 -7.0 8.85 -2.0 4.4 2.05 0.8 -0.35 -2.25" fill="#fdf200" fill-rule="evenodd" stroke="none"/>
      <path d="M3.1 -3.2 Q4.75 -2.15 4.75 -1.3 2.2 2.55 2.55 -0.1 2.8 -1.7 1.4 -3.15 L-0.05 -4.3 Q1.35 -4.25 3.1 -3.2" fill="#000000" fill-rule="evenodd" stroke="none"/>
      <path d="M-11.25 3.55 Q-6.9 2.85 -4.8 4.95 -4.35 5.35 -4.8 5.8 -5.2 6.2 -5.6 5.8 -7.35 4.15 -11.1 4.75 -11.7 4.9 -11.8 4.3 -11.9 3.7 -11.25 3.55" fill="#fda900" fill-rule="evenodd" stroke="none"/>
      <path d="M-10.0 1.35 Q-5.7 0.85 -2.4 2.8 -1.9 3.1 -2.2 3.65 -2.45 4.1 -3.0 3.8 -5.9 2.15 -9.9 2.55 -10.4 2.55 -10.55 2.0 -10.55 1.45 -10.0 1.35" fill="#fda900" fill-rule="evenodd" stroke="none"/>
      <path d="M-8.8 -0.05 Q-8.9 -0.55 -8.25 -0.7 -3.7 -1.15 -0.95 0.55 -0.45 1.0 -0.75 1.4 -1.05 1.95 -1.65 1.6 -4.05 0.1 -8.15 0.5 -8.8 0.65 -8.8 -0.05" fill="#fda900" fill-rule="evenodd" stroke="none"/>
      <path d="M-12.45 4.4 L-12.1 4.1 -12.0 5.15 -13.05 7.15 -13.25 6.35 -13.0 5.15 -12.45 4.4 M-8.0 -4.25 L-7.05 -4.4 -7.05 -3.35 -8.3 -3.2 -8.0 -4.25" fill="#fdffff" fill-rule="evenodd" stroke="none"/>
      <path d="M-12.95 11.9 L-10.65 12.5 Q-10.6 13.25 -10.05 14.05 -11.4 13.85 -12.45 13.3 L-12.95 11.9" fill="#fda900" fill-rule="evenodd" stroke="none"/>
      <path d="M1.05 -0.55 Q1.15 -1.45 2.4 -1.7 L2.3 1.35 Q-0.1 8.55 -8.4 9.1 -5.9 8.2 -2.2 5.9 0.55 4.15 1.05 2.15 L1.05 -0.55" fill="#fda900" fill-rule="evenodd" stroke="none"/>
    </g>
  </defs>
</svg>
